catenergy/img/advantage-knife.svg

<svg width="23pt" height="40" viewBox="0 0 23 30" xmlns="http://www.w3.org/2000/svg"><path opacity=".89" d="M0 0h1.82c.07 2.67.07 5.34.09 8 .44.4 1.32 1.19 1.76 1.58 0-3.19 0-6.39.09-9.58h1.78c.35 3.21.16 6.45.37 9.67C8.29 7.04 6.97 3.21 7.46 0h1.76c.26 4.14 1.37 9.91-3.42 11.88-.2 6.04.27 12.1-.27 18.12H3.79c-.25-6.04-.01-12.08-.16-18.11C2.22 11 .81 10.03 0 8.53V0zm17.39 0h1.87C22.51 4.42 22.6 10.19 23 15.44v4.11c-1.23.1-2.45.2-3.68.29.02 3.39.01 6.77-.08 10.16h-1.78c-.43-9.98-.27-20.01-.07-30m1.96 17.94c.44-.15 1.32-.45 1.77-.59.06-4.13-.87-8.18-1.35-12.26-.96 4.2-.25 8.57-.42 12.85z" fill="#fff"/></svg>

<?xml version="1.0" encoding="UTF-8" ?>
<!DOCTYPE svg PUBLIC "-//W3C//DTD SVG 1.1//EN" "http://www.w3.org/Graphics/SVG/1.1/DTD/svg11.dtd">
<svg width="23pt" height="30pt" viewBox="0 0 23 30" version="1.1" xmlns="http://www.w3.org/2000/svg">
<g id="#ffffffe3">
<path fill="#ffffff" opacity="0.89" d=" M 0.00 0.00 L 1.82 0.00 C 1.89 2.67 1.89 5.34 1.91 8.00 C 2.35 8.40 3.23 9.19 3.67 9.58 C 3.67 6.39 3.67 3.19 3.76 0.00 L 5.54 0.00 C 5.89 3.21 5.70 6.45 5.91 9.67 C 8.29 7.04 6.97 3.21 7.46 0.00 L 9.22 0.00 C 9.48 4.14 10.59 9.91 5.80 11.88 C 5.60 17.92 6.07 23.98 5.53 30.00 L 3.79 30.00 C 3.54 23.96 3.78 17.92 3.63 11.89 C 2.22 11.00 0.81 10.03 0.00 8.53 L 0.00 0.00 Z" />
<path fill="#ffffff" opacity="0.89" d=" M 17.39 0.00 L 19.26 0.00 C 22.51 4.42 22.60 10.19 23.00 15.44 L 23.00 19.55 C 21.77 19.65 20.55 19.75 19.32 19.84 C 19.34 23.23 19.33 26.61 19.24 30.00 L 17.46 30.00 C 17.03 20.02 17.19 9.99 17.39 0.00 M 19.35 17.94 C 19.79 17.79 20.67 17.49 21.12 17.35 C 21.18 13.22 20.25 9.17 19.77 5.09 C 18.81 9.29 19.52 13.66 19.35 17.94 Z" />
</g>
</svg>
